X:58
T:Gan Ainm
R:Reel
S:Unknown flute player.
D:Clare FM broadcast. From the Miltown Malbay flute recital? 
M:4/4
Z:Bernie Stocks
K:D
dB |: AFAd BcdB | (3ABAdA ef3 | AddA BcdB | AF~F2 EFD2 :: FD(3DED EFGE | 
FD(3DED =C4 | FA~A2 BcdB | cdec dBAG :| FA~A2 agfd | eA~A2 EAg2 | 
fd~d2 agfd | edcB Acde | fd~d2 agfd | eA~A2 EAg2 | fdge afed | cdec d4 ||
<end>
<start>
